X: 29090
T: Neily Cleere's
R: polka
M: 2/4
K: Dmixolydian
A/B/A/^G/ AB|c/B/A F>G|AB c/B/A|GA/G/ FG|
A>^G AB|cA fg/f/|ed A/G/F|G2:|
a>g fa|ge fg|aa/g/ fa|ga/g/ fg|
a>g f/g/a|ge f2|ed AF|G2:|

